Papirus/16x16/places/folder-yandex-disk.svg

<svg xmlns="http://www.w3.org/2000/svg" viewBox="0 0 16 16">
  <defs>
    <style type="text/css" id="current-color-scheme">
      .ColorScheme-Text {
        color:#000000;
      }
      </style>
  </defs>
  <path 
     style="fill:currentColor;opacity:1"
     class="ColorScheme-Text"
     d="M 7.2890625 3.0078125 C 7.0054848 3.0269848 6.7010938 3.0792094 6.3710938 3.1699219 C 3.7317938 3.8956219 3.7254344 5.9314844 3.1152344 7.0214844 C 2.6154344 7.9150844 1.06775 9.2216562 0.28125 10.097656 C 1.02835 9.2848563 2.9283187 7.7741312 7.2617188 6.5820312 C 11.176315 5.5060154 13.519439 5.6876876 14.697266 5.9648438 C 13.598535 5.6638088 11.974629 5.3748251 11.066406 4.8339844 C 10.194906 4.3146719 9.2741066 2.8736066 7.2890625 3.0078125 z M 14.697266 5.9648438 C 14.860314 6.0095165 15.045556 6.0535033 15.179688 6.0996094 C 15.049988 6.0553551 14.884866 6.0089882 14.697266 5.9648438 z M 8.8417969 3.9121094 C 9.070942 3.9162981 9.3494381 4.0028037 9.5800781 4.1679688 C 10.017118 4.4804287 10.147025 4.9572606 9.671875 5.0878906 C 9.196205 5.2185006 8.5876375 4.8747806 8.3984375 4.4941406 C 8.2651975 4.2254106 8.3848925 4.0033569 8.6328125 3.9355469 C 8.69488 3.9185019 8.7654152 3.9107131 8.8417969 3.9121094 z M 6.9882812 4.2480469 C 7.2776894 4.2718542 7.5229169 4.4459669 7.5917969 4.7089844 C 7.6831169 5.0589344 7.4281444 5.435455 7.0214844 5.546875 C 6.6146844 5.658575 6.2110406 5.4639813 6.1191406 5.1132812 C 6.0278406 4.7632813 6.2826531 4.3895438 6.6894531 4.2773438 C 6.7911331 4.2495188 6.8918119 4.2401111 6.9882812 4.2480469 z M 5.015625 4.9648438 C 5.1801633 4.9868159 5.3030231 5.1162644 5.3144531 5.3417969 C 5.3360531 5.7685769 4.97567 6.3788656 4.5 6.5097656 C 4.02521 6.6403656 3.9069025 6.1608456 4.1328125 5.6660156 C 4.2923325 5.3173356 4.5920738 5.0470456 4.8398438 4.9785156 C 4.9017513 4.9615031 4.9607789 4.9575197 5.015625 4.9648438 z M 15.484375 6.2207031 C 15.527135 6.2412731 15.570069 6.26034 15.605469 6.28125 C 15.578269 6.26521 15.535975 6.2445031 15.484375 6.2207031 z M 13.285156 6.5878906 C 11.768781 6.6016431 9.7515906 6.9191681 7.5878906 7.5175781 C 3.2607906 8.7143781 -0.0163125 10.582706 0.3046875 11.816406 C 0.5213675 12.651406 2.3697594 13.124356 4.8808594 12.972656 C 5.9303594 13.062656 7.3366375 12.906491 8.8359375 12.494141 C 10.313738 12.088051 11.592231 11.51218 12.457031 10.90625 C 14.777031 9.72805 16.197363 8.3322219 15.976562 7.4824219 C 15.816562 6.8653219 14.801531 6.5741381 13.285156 6.5878906 z M 10.734375 9.8769531 C 11.391425 9.8611319 11.829078 9.9702506 11.892578 10.212891 C 12.019418 10.697711 10.565794 11.394709 8.6835938 11.912109 C 6.8011937 12.429759 5.2026719 12.571488 5.0761719 12.085938 C 4.9493319 11.600877 6.3770656 10.810369 8.2597656 10.292969 C 9.2008656 10.033894 10.077325 9.8927744 10.734375 9.8769531 z "
      />
</svg>

<?xml version="1.0" encoding="UTF-8" standalone="no"?>
<!--Created with Inkscape (http://www.inkscape.org/)-->
<svg id="svg2817" xmlns:rdf="http://www.w3.org/1999/02/22-rdf-syntax-ns#" xmlns="http://www.w3.org/2000/svg" height="16" width="16" version="1.0" xmlns:cc="http://creativecommons.org/ns#" xmlns:dc="http://purl.org/dc/elements/1.1/">
 <metadata id="metadata57">
  <rdf:RDF>
   <cc:Work rdf:about="">
    <dc:format>image/svg+xml</dc:format>
    <dc:type rdf:resource="http://purl.org/dc/dcmitype/StillImage"/>
    <dc:title/>
   </cc:Work>
  </rdf:RDF>
 </metadata>
 <path id="yandex-ufo" opacity="1" d="m0.28074 10.097c-0.12282 0.134-0.21461 0.248-0.28074 0.339 0.074986-0.102 0.17082-0.217 0.28074-0.339zm15.203-3.8765c0.04276 0.02057 0.08624 0.04075 0.12164 0.06166-0.0272-0.01604-0.07004-0.03786-0.12164-0.06166zm-8.2218 0.36105c4.5381-1.2474 6.9738-0.80368 7.9178-0.48158-1.038-0.3568-3.07-0.6447-4.113-1.2658-0.996-0.5935-2.0557-2.3899-4.6957-1.6642-2.6393 0.7257-2.6457 2.7611-3.2559 3.8511-0.4998 0.8936-2.0479 2.1999-2.8344 3.0759 0.7471-0.8128 2.6483-2.3233 6.9817-3.5154zm1.3706-2.6454c0.24827-0.06818 0.63935 0.01228 0.94687 0.2325 0.43704 0.31246 0.56831 0.7881 0.09316 0.91873-0.47567 0.13061-1.0843-0.2132-1.2735-0.59384-0.13324-0.26873-0.0144-0.48956 0.23352-0.55737zm-1.9434 0.341c0.40672-0.1113 0.81034 0.08185 0.90218 0.43254 0.09132 0.34995-0.164 0.72484-0.57066 0.83626-0.4068 0.1117-0.8104-0.0813-0.9023-0.432-0.0913-0.35 0.164-0.7246 0.5708-0.8368zm-2.5558 1.3887c0.15952-0.34868 0.45867-0.61868 0.70644-0.68721 0.24763-0.06805 0.45867 0.06203 0.47391 0.36274 0.0216 0.42678-0.33787 1.0367-0.81354 1.1676-0.47479 0.1306-0.59279-0.34833-0.36688-0.84316zm11.844 1.8162c-0.32-1.2342-4.0618-1.1605-8.3892 0.03632-4.3271 1.1968-7.6036 3.0637-7.2826 4.2974 0.21668 0.835 2.064 1.3078 4.5751 1.1561 1.0495 0.09 2.4554-0.06442 3.9547-0.47677 1.4778-0.40609 2.756-0.98237 3.6208-1.5883 2.32-1.1782 3.7418-2.5749 3.521-3.4247zm-7.2936 4.4309c-1.8824 0.51765-3.4816 0.65852-3.6081 0.17297-0.12684-0.48506 1.3021-1.2759 3.1848-1.7933 1.8822-0.51815 3.5058-0.565 3.6328-0.07972 0.12684 0.48482-1.3274 1.1827-3.2096 1.7001z"/>
</svg>
